Numix-Light/16/status/indicator-keyboard-Zh-6.svg

<?xml version="1.0" encoding="UTF-8" standalone="no"?>
<svg
   xmlns:dc="http://purl.org/dc/elements/1.1/"
   xmlns:cc="http://creativecommons.org/ns#"
   xmlns:rdf="http://www.w3.org/1999/02/22-rdf-syntax-ns#"
   xmlns:svg="http://www.w3.org/2000/svg"
   xmlns="http://www.w3.org/2000/svg"
   xmlns:sodipodi="http://sodipodi.sourceforge.net/DTD/sodipodi-0.dtd"
   xmlns:inkscape="http://www.inkscape.org/namespaces/inkscape"
   viewBox="0 0 16 16"
   id="svg2"
   version="1.1"
   inkscape:version="0.91 r13725"
   sodipodi:docname="indicator-keyboard-Zh-6.svg">
  <metadata
     id="metadata14">
    <rdf:RDF>
      <cc:Work
         rdf:about="">
        <dc:format>image/svg+xml</dc:format>
        <dc:type
           rdf:resource="http://purl.org/dc/dcmitype/StillImage" />
      </cc:Work>
    </rdf:RDF>
  </metadata>
  <defs
     id="defs12" />
  <sodipodi:namedview
     pagecolor="#ffffff"
     bordercolor="#666666"
     borderopacity="1"
     objecttolerance="10"
     gridtolerance="10"
     guidetolerance="10"
     inkscape:pageopacity="0"
     inkscape:pageshadow="2"
     inkscape:window-width="459"
     inkscape:window-height="369"
     id="namedview10"
     showgrid="false"
     inkscape:zoom="14.75"
     inkscape:cx="8"
     inkscape:cy="8"
     inkscape:window-x="65"
     inkscape:window-y="24"
     inkscape:window-maximized="0"
     inkscape:current-layer="svg2" />
  <path
     style="fill:#353535;fill-opacity:1"
     d="M 1.5996094 0 C 0.71320937 2.9605947e-16 0 0.71320937 0 1.5996094 L 0 14.400391 C 2.9605947e-16 15.286791 0.71320937 16 1.5996094 16 L 14.400391 16 C 15.286791 16 16 15.286791 16 14.400391 L 16 1.5996094 C 16 0.71320937 15.286791 0 14.400391 0 L 1.5996094 0 z M 7.6777344 4.1113281 L 7.6777344 6.578125 C 7.8697344 6.506125 8.0656719 6.4520156 8.2636719 6.4160156 C 8.4616719 6.3740156 8.6594219 6.3535156 8.8574219 6.3535156 C 9.2174219 6.3535156 9.5178125 6.4038594 9.7578125 6.5058594 C 9.9978128 6.6078594 10.189984 6.7552656 10.333984 6.9472656 C 10.477984 7.1332656 10.576859 7.3570938 10.630859 7.6210938 C 10.690859 7.8850937 10.720703 8.1761406 10.720703 8.4941406 L 10.720703 11.095703 L 10.134766 11.095703 L 10.134766 8.6835938 C 10.134766 8.3535938 10.112453 8.0756562 10.064453 7.8476562 C 10.022453 7.6196563 9.9458909 7.4330625 9.8378906 7.2890625 C 9.7358906 7.1450625 9.5978281 7.0424219 9.4238281 6.9824219 C 9.2498281 6.9164219 9.0315781 6.8847656 8.7675781 6.8847656 C 8.6655781 6.8847656 8.5555469 6.8921562 8.4355469 6.9101562 C 8.3215469 6.9281563 8.2133281 6.9506094 8.1113281 6.9746094 C 8.0093281 6.9926094 7.9160312 7.0131094 7.8320312 7.0371094 C 7.7540312 7.0611094 7.7017344 7.0797969 7.6777344 7.0917969 L 7.6777344 11.095703 L 7.09375 11.095703 L 7.09375 4.2207031 L 7.6777344 4.1113281 z M 1.7871094 4.859375 L 5.8652344 4.859375 L 5.8652344 5.4179688 C 5.7212344 5.5859687 5.5533281 5.7892969 5.3613281 6.0292969 C 5.1753281 6.2692969 4.9738125 6.5323125 4.7578125 6.8203125 C 4.5418125 7.1023125 4.3197969 7.4064687 4.0917969 7.7304688 C 3.8697969 8.0484688 3.6477813 8.3711719 3.4257812 8.7011719 C 3.2097813 9.0251719 3.0026875 9.3460625 2.8046875 9.6640625 C 2.6126875 9.9820627 2.4392031 10.282453 2.2832031 10.564453 L 5.9550781 10.564453 L 5.9550781 11.095703 L 1.6171875 11.095703 L 1.6171875 10.636719 C 1.7491875 10.378719 1.9039844 10.097016 2.0839844 9.7910156 C 2.2699844 9.4790156 2.4696875 9.1618906 2.6796875 8.8378906 C 2.8896875 8.5078906 3.1079375 8.1776562 3.3359375 7.8476562 C 3.5639375 7.5176562 3.7877656 7.2023438 4.0097656 6.9023438 C 4.2317656 6.5963438 4.442625 6.3146406 4.640625 6.0566406 C 4.844625 5.7986406 5.0312188 5.576625 5.1992188 5.390625 L 1.7871094 5.390625 L 1.7871094 4.859375 z M 14.113281 8.8242188 L 14.136719 9.1464844 C 13.898819 9.1620844 13.679363 9.1993125 13.476562 9.2578125 C 13.277663 9.3124125 13.099359 9.4005844 12.943359 9.5214844 C 12.787359 9.6384843 12.658034 9.7893625 12.552734 9.9765625 C 12.447434 10.163763 12.374938 10.394969 12.335938 10.667969 C 12.441238 10.613369 12.568597 10.566344 12.716797 10.527344 C 12.864997 10.484444 13.021753 10.462891 13.189453 10.462891 C 13.407853 10.462891 13.593994 10.498159 13.746094 10.568359 C 13.898194 10.634659 14.019681 10.722838 14.113281 10.835938 C 14.206881 10.949038 14.275459 11.080316 14.318359 11.228516 C 14.361259 11.376716 14.382813 11.533466 14.382812 11.697266 C 14.382812 11.849366 14.3593 12.000244 14.3125 12.152344 C 14.2657 12.304444 14.191244 12.443559 14.089844 12.568359 C 13.992344 12.689259 13.868897 12.789187 13.716797 12.867188 C 13.568597 12.945188 13.390294 12.984375 13.183594 12.984375 C 12.758494 12.984375 12.435191 12.835463 12.212891 12.539062 C 11.994491 12.238762 11.884766 11.821409 11.884766 11.287109 C 11.884766 10.495409 12.074825 9.8958281 12.453125 9.4863281 C 12.835325 9.0768281 13.387881 8.8554188 14.113281 8.8242188 z M 13.154297 10.794922 C 12.974897 10.794922 12.818141 10.816475 12.681641 10.859375 C 12.549041 10.898375 12.423641 10.9454 12.306641 11 C 12.298841 11.0663 12.294922 11.119203 12.294922 11.158203 L 12.294922 11.292969 C 12.294922 11.476269 12.306678 11.650653 12.330078 11.814453 C 12.357378 11.978253 12.404403 12.121294 12.470703 12.246094 C 12.540903 12.370894 12.632994 12.470822 12.746094 12.544922 C 12.859194 12.615122 13.002234 12.650391 13.177734 12.650391 C 13.322034 12.650391 13.445475 12.624919 13.546875 12.574219 C 13.648275 12.519619 13.730569 12.449081 13.792969 12.363281 C 13.855369 12.277481 13.900434 12.177553 13.927734 12.064453 C 13.958934 11.951353 13.974609 11.833784 13.974609 11.708984 C 13.974609 11.396984 13.904072 11.165778 13.763672 11.017578 C 13.627172 10.869378 13.423397 10.794922 13.154297 10.794922 z "
     id="path4" />
</svg>

<svg xmlns="http://www.w3.org/2000/svg" viewBox="0 0 16 16">
 <path d="m 1.6 0 c -0.886 0 -1.6 0.713 -1.6 1.6 l 0 12.801 c 0 0.886 0.713 1.6 1.6 1.6 l 12.801 0 c 0.886 0 1.6 -0.713 1.6 -1.6 l 0 -12.801 c 0 -0.886 -0.713 -1.6 -1.6 -1.6 l -12.801 0 z m 6.078 4.111 l 0 2.467 c 0.192 -0.072 0.388 -0.126 0.586 -0.162 c 0.198 -0.042 0.396 -0.063 0.594 -0.063 c 0.36 0 0.66 0.05 0.9 0.152 c 0.24 0.102 0.432 0.249 0.576 0.441 c 0.144 0.186 0.243 0.41 0.297 0.674 c 0.06 0.264 0.09 0.555 0.09 0.873 l 0 2.602 l -0.586 0 l 0 -2.412 c 0 -0.33 -0.022 -0.608 -0.07 -0.836 c -0.042 -0.228 -0.119 -0.415 -0.227 -0.559 c -0.102 -0.144 -0.24 -0.247 -0.414 -0.307 c -0.174 -0.066 -0.392 -0.098 -0.656 -0.098 c -0.102 0 -0.212 0.007 -0.332 0.025 c -0.114 0.018 -0.222 0.04 -0.324 0.064 c -0.102 0.018 -0.195 0.038 -0.279 0.063 c -0.078 0.024 -0.13 0.043 -0.154 0.055 l 0 4 l -0.584 0 l 0 -6.875 l 0.584 -0.109 z m -5.891 0.748 l 4.078 0 l 0 0.559 c -0.144 0.168 -0.312 0.371 -0.504 0.611 c -0.186 0.24 -0.388 0.503 -0.604 0.791 c -0.216 0.282 -0.438 0.586 -0.666 0.91 c -0.222 0.318 -0.444 0.641 -0.666 0.971 c -0.216 0.324 -0.423 0.645 -0.621 0.963 c -0.192 0.318 -0.365 0.618 -0.521 0.9 l 3.672 0 l 0 0.531 l -4.338 0 l 0 -0.459 c 0.132 -0.258 0.287 -0.54 0.467 -0.846 c 0.186 -0.312 0.386 -0.629 0.596 -0.953 c 0.21 -0.33 0.428 -0.66 0.656 -0.99 c 0.228 -0.33 0.452 -0.645 0.674 -0.945 c 0.222 -0.306 0.433 -0.588 0.631 -0.846 c 0.204 -0.258 0.391 -0.48 0.559 -0.666 l -3.412 0 l 0 -0.531 z m 12.326 3.965 l 0.023 0.322 c -0.238 0.016 -0.457 0.053 -0.66 0.111 c -0.199 0.055 -0.377 0.143 -0.533 0.264 c -0.156 0.117 -0.285 0.268 -0.391 0.455 c -0.105 0.187 -0.178 0.418 -0.217 0.691 c 0.105 -0.055 0.233 -0.102 0.381 -0.141 c 0.148 -0.043 0.305 -0.064 0.473 -0.064 c 0.218 0 0.405 0.035 0.557 0.105 c 0.152 0.066 0.274 0.154 0.367 0.268 c 0.094 0.113 0.162 0.244 0.205 0.393 c 0.043 0.148 0.064 0.305 0.064 0.469 c 0 0.152 -0.024 0.303 -0.07 0.455 c -0.047 0.152 -0.121 0.291 -0.223 0.416 c -0.098 0.121 -0.221 0.221 -0.373 0.299 c -0.148 0.078 -0.327 0.117 -0.533 0.117 c -0.425 0 -0.748 -0.149 -0.971 -0.445 c -0.218 -0.3 -0.328 -0.718 -0.328 -1.252 c 0 -0.792 0.19 -1.391 0.568 -1.801 c 0.382 -0.409 0.935 -0.631 1.66 -0.662 z m -0.959 1.971 c -0.179 0 -0.336 0.022 -0.473 0.064 c -0.133 0.039 -0.258 0.086 -0.375 0.141 c -0.008 0.066 -0.012 0.119 -0.012 0.158 l 0 0.135 c 0 0.183 0.012 0.358 0.035 0.521 c 0.027 0.164 0.074 0.307 0.141 0.432 c 0.07 0.125 0.162 0.225 0.275 0.299 c 0.113 0.07 0.256 0.105 0.432 0.105 c 0.144 0 0.268 -0.025 0.369 -0.076 c 0.101 -0.055 0.184 -0.125 0.246 -0.211 c 0.062 -0.086 0.107 -0.186 0.135 -0.299 c 0.031 -0.113 0.047 -0.231 0.047 -0.355 c 0 -0.312 -0.071 -0.543 -0.211 -0.691 c -0.136 -0.148 -0.34 -0.223 -0.609 -0.223 z" style="fill:#353535;fill-opacity:1"/>
</svg>
